X:187
T: "Schusters Abendlied"
N: Z0186
O: Europa, Mitteleuropa, Deutschland
R: Schuster -, Handwerker - Lied, Liebeslied
M: 2/4
L: 1/16
K: F
C2 | F2E2F2G2 | A4F2C2 | G4z2
C2 | F2E2F2G2 | A4F4 | G2GGG2cc | A4z2
A2 | A2G2F2E2 | E2D2D2
A,2 | D4z2C2 | F4C4 | A4z2

@@@ Tune index: 9945
